!!!OTL-incipit: IM SCHWOBENLAND A BAUER WOHNT
!!!ARE: Europa, Mitteleuropa, Deutschland, Kuhlaendchen
!!!SCT: Z0154
!!!YEM: Copyright 1995, estate of Helmut Schaffrath.
**kern	**text
*ICvox	*
*M2/4	*
*k[]	*
*a:	*
!LO:TX:a:t=Aus dem Kuhländchen.	!
{8e	Jm
=1	=1
8a	Schwoben-
8a	.
8b/	-land
8b/	a
=2	=2
8cc	Bauer
8cc	.
8g}	wohnt,
{8g	der
=3	=3
8cc	hot
8cc	a
8dd	ſchö-
8dd	-nes
=4	=4
4ee	Weib,
4ee	Weib,
=5	=5
4ee	Weib,
8ee	did-
8ee	-lum-
=6	=6
[4ee	-dai,
8ee]}	.
{8cc	da-
=7	=7
8ee	-ʒu
8ee	a
8ee	ſchö-
8ee	-nes
=8	=8
4dd	Dirn-
8dd}	-le,
{8ee	das
=9	=9
8cc	war
8a	des
8b/	Bau-
8g#	-ers
=10	=10
4a	Freud',
8a	did-
8a	-lum-
=11	=11
4a	-dai.
8r}	.
==	==
!!!AGN: Erzaehlung, lustige Romanze
!!!ONB: ESAC (Essen Associative Code) Database: ZUCCAL
!!!AMT: simple duple
!!!AIN: vox
!!!EED: Helmut Schaffrath
!!!EEV: 1.0
!!!GTL: II. Erzahlungen, lustige Romanzen, Kinder-Lieder und episch-lyrische Volks-Lieder.
!!!URL-scan: https://www.digitale-sammlungen.de/de/view/bsb11160571?page=292
!!!ENC: Anna Maria Matuszewska
!!!EEV: 2025/01/28
*-	*-
